icon_installer/data/icons/scalable/actions/show-shoe-box-symbolic.svg

<?xml version="1.0" encoding="UTF-8"?>
<svg height="16px" viewBox="0 0 16 16" width="16px" xmlns="http://www.w3.org/2000/svg">
    <path d="m 14 3 v 2 h -12 v -2 z m -14 0 v 2 c 0 1.109375 0.890625 2 2 2 h 12 c 1.109375 0 2 -0.890625 2 -2 v -2 c 0 -1.109375 -0.890625 -2 -2 -2 h -12 c -1.109375 0 -2 0.890625 -2 2 z m 0 0"/>
    <path d="m 13 7 v 7 h -10 v -7 z m -12 0 v 7 c 0 1.109375 0.890625 2 2 2 h 10 c 1.109375 0 2 -0.890625 2 -2 v -7 c 0 -1.109375 -0.890625 -2 -2 -2 h -10 c -1.109375 0 -2 0.890625 -2 2 z m 0 0"/>
    <path d="m 6 8 h 4 v 1 h -4 z m 0 0"/>
</svg>

<svg xmlns="http://www.w3.org/2000/svg" width="16" height="16"><path d="M14 3v2H2V3zM0 3v2c0 1.11.89 2 2 2h12c1.11 0 2-.89 2-2V3c0-1.11-.89-2-2-2H2C.89 1 0 1.89 0 3zm0 0"/><path d="M13 7v7H3V7zM1 7v7c0 1.11.89 2 2 2h10c1.11 0 2-.89 2-2V7c0-1.11-.89-2-2-2H3c-1.11 0-2 .89-2 2zm0 0"/><path d="M6 8h4v1H6zm0 0"/></svg>
